svgs/sharp-light/cable-car.svg

<svg xmlns="http://www.w3.org/2000/svg" viewBox="0 0 512 512"><!--! Font Awesome Pro 6.6.0 by @fontawesome - https://fontawesome.com License - https://fontawesome.com/license (Commercial License) Copyright 2024 Fonticons, Inc. --><path d="M288 48a24 24 0 1 0 0-48 24 24 0 1 0 0 48zm-72 8a24 24 0 1 0 -48 0 24 24 0 1 0 48 0zM320 256l0 96-128 0 0-96 48 0 32 0 48 0zm32 0l96 0 0 96-96 0 0-96zm96 128l0 96L64 480l0-96 112 0 160 0 112 0zM64 352l0-96 96 0 0 96-96 0zM448 224l-176 0 0-83L491.2 95.7l15.7-3.2-6.5-31.3-15.7 3.2-232 48-232 48L5.1 163.6l6.5 31.3 15.7-3.2 212.8-44 0 76.4L64 224l-32 0 0 32 0 224 0 32 32 0 384 0 32 0 0-32 0-224 0-32-32 0z"/></svg>

<svg xmlns="http://www.w3.org/2000/svg" viewBox="0 0 512 512"><!--! Font Awesome Pro 6.4.0 by @fontawesome - https://fontawesome.com License - https://fontawesome.com/license (Commercial License) Copyright 2023 Fonticons, Inc. --><path d="M288 48a24 24 0 1 0 0-48 24 24 0 1 0 0 48zm-72 8a24 24 0 1 0 -48 0 24 24 0 1 0 48 0zM320 256v96H192V256h48 32 48zm32 0h96v96H352V256zm96 128v96H64V384H176 336 448zM64 352V256h96v96H64zM448 224H272V141L491.2 95.7l15.7-3.2-6.5-31.3-15.7 3.2-232 48-232 48L5.1 163.6l6.5 31.3 15.7-3.2 212.8-44V224H64 32v32V480v32H64 448h32V480 256 224H448z"/></svg>
